X:1
T:Hubble ascending
T:Peter Bird
T:Peter Bird
T:Hubble ascending
T:In honor of 25 years of research and discovery with the Hubble Space Telescope
T:Copyright © 2015 by George Peter Bird.  This edition may be freely distributed, duplicated, performed, and recorded.
T:Copyright © 2015 by George Peter Bird.  This edition may be freely distributed, duplicated, performed, and recorded.
T:Copyright © 2015 by George Peter Bird.  This edition may be freely distributed, duplicated, performed, and recorded.
T:Copyright © 2015 by George Peter Bird.  This edition may be freely distributed, duplicated, performed, and recorded.
T:Copyright © 2015 by George Peter Bird.  This edition may be freely distributed, duplicated, performed, and recorded.
T:Copyright © 2015 by George Peter Bird.  This edition may be freely distributed, duplicated, performed, and recorded.
T:Copyright © 2015 by George Peter Bird.  This edition may be freely distributed, duplicated, performed, and recorded.
T:Copyright © 2015 by George Peter Bird.  This edition may be freely distributed, duplicated, performed, and recorded.
T:Copyright © 2015 by George Peter Bird.  This edition may be freely distributed, duplicated, performed, and recorded.
T:Copyright © 2015 by George Peter Bird.  This edition may be freely distributed, duplicated, performed, and recorded.
T:Copyright © 2015 by George Peter Bird.  This edition may be freely distributed, duplicated, performed, and recorded.
T:Copyright © 2015 by George Peter Bird.  This edition may be freely distributed, duplicated, performed, and recorded.
T:Copyright © 2015 by George Peter Bird.  This edition may be freely distributed, duplicated, performed, and recorded.
T:Copyright © 2015 by George Peter Bird.  This edition may be freely distributed, duplicated, performed, and recorded.
C:Peter Bird
Z:Peter Bird
Z:Copyright © 2015 by George Peter Bird.  This edition may be freely distributed, duplicated, performed, and recorded.
%%score [ ( 1 2 ) 3 4 5 ]
L:1/8
Q:1/4=120
M:4/4
K:Bb
V:1 treble nm="SOPRANO" snm="S."
V:2 treble 
V:3 treble nm="ALTO" snm="A."
V:4 treble-8 transpose=-12 nm="TENOR" snm="T."
V:5 bass nm="BASS" snm="B."
V:1
 z8 | z2!mf! F2 G2 F2 | d4 c4 | f6 z2 | z8 | z2 A2 B2 c2 | (f4 e2) d2 | (e2 d2 c2 B2 | F6)!mp! z2 | %9
w: |O, eye of|Man that|flies||a- bove the|stra- * to-|sphere, _ _ _|_|
 (e4 d4- | d8 | f8) | z2 (d2 c4) |!mf! z2 c2 d2 B2 | (d2 c2) (g4 | f4 e4) | A4 z2!mp! d2 | %17
w: Ah _|_||Air, _|in si- lent|sun- * light|_ _|fair or|
 c2 B2 d2 f2 | e8 |"^A" z8 | z8 | z4!mf! z2 A2 | B2 c2 (d4 | f4 e2) z2 | z2 (d2 e4) | (B4 g2 f2 | %26
w: shad- ed by the|Earth;|||O,|eye of Man|_ _|that _|flies _ _|
"^rit." e2 d2 edcB | A2) z2 A2 c2 | (B4 e2 f2 | d2 e2 B2 c2) | d4 z2 f2- || %31
w: _ _ _ _ _ _|* a- bove|bus- * *||y air,|
"^B"[Q:1/4=100] f6!mp! z2 | (B2 A2 G2) F2 | (G2 ^F2 =E2 D2) | (d2 c2 B2) A2 | (^f2 =e2 d2 ^c2 || %36
w: _|turn- * * ing|'round; _ _ _|turn- * * ing|'round, _ _ _|
[K:G] d6) z2 |!p! [Fd]8- | [Fd]8- | [Fd-]8 | d8 | G4 B4 | [de]6!mp! z2 | (d4 e4- | e6) z2 | %45
w: _|Oh.|_|||Last ar-|rives|Ah _|_|
 z2 c2 c2 B2 |!<(! c4!<)! [cg]4 |!mf! [Bf]6 z2 ||[M:3/4]"^C"!f![Q:1/4=120] (g2 d2 e2) | %49
w: A- cross ten|bil- lion|years;|O, _ _|
 (d2 B2) c2 | d4 e2- | e2 (G4 | A2 B2 c2 | d4) z2 | f6 | (d4 e2 | c2 B2) (d2 | e2 f2 g2- | %58
w: eye _ of|Man that|_ sees|_ _ _||the|flow- *|* * ers|_ _ _|
 g2) c2 B2 | A4 z2 | (G2 A2 G2) | (B2 c2) d2 | (ec BA) f2 | (g2 c2 d2 | e2 d4- | d2) z2!mf! (B2- | %66
w: * of the|sky|ex- * *|pan- * ding|as _ _ _ they|fly; _ _|_ _|* Ah|
 B6 | c2 d2 e2 | d6 | e4 B2 | c2 d4- | d4) z2 |!mp! (d4 e2) |!<(! (f2 g2 f2 | e2) d4 | %75
w: _||||||The _|flow- * *|* ers|
 c2 A2 B2-!<)! | B4 z2 |!mf! (e4 d2- | d4!<(! e2 | f2 g2 [de]2- | [d-e]4!<)! d2 |!f! [ce-]2 e4- | %82
w: of the sky|_|Ah _|_ _||||
 e2- [de]4- ||[M:4/4]"^D" [de]2) z2 z2!mp! [Be]2 |!<(! [B^d]4 e4 |"^E" ^g6!<)! B2 | %86
w: |* The|pil- lars||
!f!!>(! (^A4!>)! B4) |"^rit." ^c4 z2!mf! e2 | A2 B2!>(! ^c4- | c4!>)!!mp! d2 A2 | %90
w: ||rook- er- ies|_ of the|
 ^G6[Q:1/4=120] !fermata!z2 ||[K:E][M:3/4]!mf! (e2 B2 c2) | (B2 G2) A2 | B4 c2- | c2 (E4 | %95
w: stars;|O, _ _|eye _ of|Man that|_ sees|
 F2 G2 A2 | B4)!mp! z2 | (B2 A2 B2) |!<(! (G4 F2 | B4!<)! d2 |!mf! e2) (B2 A2 | G2) E2 E2 | A6 | %103
w: _ _ _||The _ _|swirl- *||* ing _|_ gal- ax-|ies;|
 z4 (G2 | c2 e2) d2 | c4 (d2 | f2 B2 A2 | G4) B2 |"^rit." c4 z2 |!mf! e2 B2 c2 | (B2 G2) A2 | %111
w: And|_ _ sis-|ter worlds|_ _ _|* of|Earth;|and all the|reel _ of|
 B4 c2- | c2 (E4 | F2 G2 A2 | B4) z2 | B2 A2 B2 |!<(! G4 F2 | (B4 d2 | e2 B3)!<)! z | %119
w: Time un-|* wound;|_ _ _||Cre- a- tion|and re-|birth; _|_ _|
!f! g2 e2 e2- | e2 d4 |"^(aug. 2nd =  min. 3rd)"[Q:1/4=60]!>(! d6!>)! ||[K:Db][M:4/4]"^F" c6 z2 | %123
w: Cre- a- tion|_ and|re-|birth:|
!mp! B4 A2 A2 | B2 A2 G2 G2 | [EF]4 z2 F2 |!<(! (B2 c2) d2 c2!<)! |!mf! B2 A2!>(! [Af]2 [Bf]2 | %128
w: Grant us hu-|mil- i- ty to|see our-|selves _ and our|ve- ry, ve- ry,|
 [Gd]4!>)!!mp! [Ac]4 |!p! B4 z2!<(! =A2 | !tenuto!B4!<)!!>)!!>(! =A4 ||[K:Bb] B8 |] %132
w: ve- ry|small but|pre- cious|home.|
V:2
 x8 | x8 | x8 | x8 | x8 | x8 | x8 | x8 | x8 | x8 | x8 | x8 | x8 | x8 | x8 | x8 | x8 | x8 | x8 | %19
w: |||||||||||||||||||
 x8 | x8 | x8 | x8 | x8 | x8 | x8 | x8 | x8 | x8 | x8 | x8 || x8 | x8 | x8 | x8 | x8 ||[K:G] x8 | %37
w: ||||||||||||||||||
 x8 | x8 | x8 | z2 d2 B2 A2 | G4 A4 | x8 | x8 | x8 | x8 | x8 | x8 ||[M:3/4] x6 | x6 | x6 | x6 | %52
w: |||As light at||||||||||||
 x6 | x6 | x6 | x6 | x6 | x6 | x6 | x6 | x6 | x6 | x6 | x6 | x6 | x6 | x6 | x6 | x6 | x6 | x6 | %71
w: |||||||||||||||||||
 x6 | x6 | x6 | x6 | x6 | x6 | x6 | x6 | x6 | x6 | x6 | x6 ||[M:4/4] x8 | x8 | (e2 ^d2 ^c2) B2 | %86
w: ||||||||||||||of _ _ cre-|
 ^A8 | ^c4 x2 e2 | x8 | x8 | x8 ||[K:E][M:3/4] x6 | x6 | x6 | x6 | x6 | x6 | x6 | x6 | x6 | x6 | %101
w: a-|tion; the||||||||||||||
 x6 | x6 | x6 | x6 | x6 | x6 | x6 | x6 | x6 | x6 | x6 | x6 | x6 | x6 | x6 | x6 | x6 | x6 | x6 | %120
w: |||||||||||||||||||
 x6 | x6 ||[K:Db][M:4/4] x8 | x8 | x8 | x8 | x8 | x8 | x8 | x8 | x8 ||[K:Bb] x8 |] %132
w: ||||||||||||
V:3
 z8 | z8 | z2!mf! F2 G2 F2 | G4 A4 | B6 z2 | z4 z2 F2 | G4 B4 | (E2 F2) B4 | c6!mp! z2 | (G4 F4 | %10
w: ||O, eye of|Man that|flies|a-|bove the|stra- * to-|sphere,|Ah _|
 G8 | B8) | z4 (G2 A2- | A2)!mf! F2 F2 F2 | (D2 E2) (B2 G2 | B2 F2 B2 E2) | C4 z2!mp! D2 | %17
w: _||Air, _|_ in si- lent|sun- * light _|_ _ _ _|fair or|
 G2 F2 F2 B2 | G8 | z2!f! B,2 C2 B,2 | G4 F4 | B6 z2 |!mf! z2 E2 F2 B2 | (A2 G4) B2- | B4 (G2 A2 | %25
w: shad- ed by the|Earth;|O, eye of|Man that|flies;|O, eye of|Man _ that|_ flies; _|
 F2) z2 z4 | z2 F2 G2 F2 | (CDEG F2) E2 | (D2 E2 F2) (GA) | (BF)(AF) G2 (BF) | ([GA]4 F2 G2 || %31
w: _|O, eye of|Man _ _ _ _ that|flies _ _ a- *|bove _ the _ bus- y _|air; _ _|
 A6) z2 |!mp! D6 C2 | D8 | (B2 A2 G2) F2 | (A2 G2 ^F2 =E2 ||[K:G] F6) z2 |!p! B,8- | B,8 | z8 | %40
w: _|turn- ing|'round;|turn- * * ing|'round, _ _ _|_|Oh.|_||
 z2!mf! D2 B,2 A,2 | B,4 [DE]4 | [EF]6 z2 | z4!mp! (B4 | A6) z2 | z2 E2 E2 D2 |!<(! [DE]4!<)! C4 | %47
w: As light at|last ar-|rives|Ah|_|A- cross ten|bil- lion|
!mf! E6 z2 ||[M:3/4]!mf! (E6 | D6- | D6) | z6 | z6 | z6 |!mf! (d2 A2 B2) | (A2 F2) G2 | A4 B2- | %57
w: years;|Ah|_|||||O, _ _|eye _ of|Man that|
 B2 (D4 | E2 F2 G2 | A4) z2 | d6 | (B2 A2 B2 | A2 G2) (B2 | c2 A2 G2- | G2) A2 G2 | F4 z2 | %66
w: _ sees|_ _ _||the|flow- * *|* * ers|_ _ _|* of the|sky|
 (C2 D2 C2) | (E2 F2) G2 | (AF ED) F2 | (G2 E2 F2 | G2 A2!>(! F2- | F6-!>)! | F2) z2!p! E2- | %73
w: ex- * *|pan- * ding|as _ _ _ they|fly; _ _|_ _ _||* Ah,|
 E2 (B2 D2) | ([GA]2 D2) (G2 | E2 D4 | C2) z2!mp! G2 | [FA]6 | z2!mf!!<(! (G4 | G2 A4 | %80
w: _ ah, _|ah, _ ah.|_ _|* The|sky;|Ah|_ _|
 [EG]4!<)! D2 |!f! G2 F4- | F4 G2- ||[M:4/4] G2) z2 z2!mp! F2 |!<(! F4 B4 | B6!<)! ^D2 | %86
w: |||* The|pil- lars|of cre-|
!f!!>(! ^G8!>)! | [EF]6 z2 | z4 z2!mp! E2 | F2 B,4 ^C2 | B,6 !fermata!z2 ||[K:E][M:3/4]!mp! E6 | %92
w: a-|tion;|Rook-|er- ies of|stars;|O,|
 (F2 E2) F2 | (G2 E2) (A2 | E2) (C2 B,2- | B,6 | C6) | z6 |!mp! z4!<(! B,2 | (F4!<)! D2 | %100
w: eye _ of|Man _ that|_ sees _|_|||The|swirl- *|
!mf! E2) (F2 G2 | F2) B2 B2 | (E2 D4- | D2) z2 z2 | z6 | z6 | z6 | z6 | z6 |!mf! E2 E2 E2 | %110
w: * ing _|_ gal- ax-|ies; _|_||||||And all the|
 (F2 E2) F2 | (G2 E2) (A2 | E2) (C2 B,2- | B,6 | C6) | z6 | z4!<(! B,2 | F4 D2 | (E2 F2)!<)! G2 | %119
w: reel _ of|Time _ un-|wound; _ _|_|||Cre-|a- tion|and _ re-|
!f! (F2 B4) | A6 |!>(! (B4!>)!"^(aug. 2nd =  min. 3rd)" c2) ||[K:Db][M:4/4] B6 z2 |!mp! D4 D2 C2 | %124
w: birth; _|and|re- *|birth:|Grant us hu-|
 D2 D2 B,2 B,2 | A,4 z2 D2 |!<(! F4 F2 F2!<)! |!mf! D2 C2!>(! C2 D2 | E4!>)!!mp! G4 | %129
w: mil- i- ty to|see our|selves and our|ve- ry, ve- ry,|ve- ry|
!p! F4 z2!<(! C2 | !tenuto![CF]4!<)!!>)!!>(! [CF]4 ||[K:Bb] [CD]8 |] %132
w: small but|pre- cious|home.|
V:4
 z8 | z8 | z4 z2!mf! A2 | B2 c2 (d4 | f4 e2) z2 | z2 (d2 e4) | (B4 g2 f2 | e2 d2 edcB | %8
w: ||O,|eye of Man|_ _|that _|flies _ _|_ _ _ _ _ _|
 A2) z2 A2 c2 | (B4 e2 f2 | d2 e2 B2 c2) | d4 z2 f2- | f6 z2 | z8 | z8 | z8 | z4!mp! (c2 B2) | %17
w: * a- bove|bus- * *||y air,|_||||or _|
 e2 B2 B2 c2 | B8 | z8 | z2!mf! F2 G2 F2 | d4 c4 | f6 z2 | z2 F2 G2 F2 | (Bcde f2) c2 | %25
w: shad- ed by the|Earth;||O, eye of|Man that|flies|O, eye of|Man _ _ _ _ that|
 (d2 ed c2 d2 | c8) | z8 | z2 e2 c2 c2 | (BcAc d2) e2 | c6 z2 || %31
w: flies _ _ _ _|_||a- bove the|bus- * * * * y|air;|
!mf! z2 !tenuto!d2 !tenuto!c2 !tenuto!B2 |!>(! G6!>)! G2 |!mp! (A6 G2) | B6 A2 | (=B6 A2 || %36
w: now state- ly|turn- ing|'round; _|turn- ing|'round, _|
[K:G] G2 A2 G2 A2) | z4 z2 G2 | F2 G2 F2 G2 | F8- | F8 | z8 | z2!mf! A2 B2 d2 | e4 f4 | [eg]6 z2 | %45
w: _ _ _ _|On|gy- ros ev- er|sure,|_||As light at|last ar-|rives|
 z2!mp! G2 A2 B2 |!<(! G4!<)! A4 |!mf! A6 z2 ||[M:3/4] z6 | z6 |!mf! (G4 A2 | B2 c2 d2 | %52
w: A- cross ten|bil- lion|years;|||Ah _|_ _ _|
 c2) z2 z2 | (B4 A2- | A4 d2- | d2 e2 d2 | c4) z2 | z6 | z6 | z6 |!f! (d2 A2 B2) | (A2 F2) G2 | %62
w: |Ah _|_ _||||||O, _ _|eye _ of|
 A4 B2- | B2 (D4 | E2 F2 G2 | A4) z2 |!mf! c6 | (A2 B2 G2- | G2 F2) (A2 | B2 c2 d2- | d2) g2 f2 | %71
w: Man that|_ sees|_ _ _||the|flow- * *|* * ers|_ _ _|* of the|
 (e4 d2) | z2!p! (A4- | A2 G2 A2 | G2 F2 G2 | A4) z2 |!<(! (c2 d2!<)! e2 |!mp! [ef]4) z2 | %78
w: sky _|Ah|_ _ _|||Ah _ _|_|
!mf!!<(! d6 | (e2 d2) A2 | (ec BA)!<)! B2 |!f! (d2 A2 B2- | B2 d2 c2- ||[M:4/4] c2) z2 z2!mp! B2 | %84
w: ex-|pan- * ding|as _ _ _ they|fly; _ _|_ _ _|* the|
!<(! B4 ^c4 | B6!<)! ^G2 |!f!!>(! (^c4!>)! ^A4) | B6 z2 | z8 | z8 | z2!mp! E4- !fermata!E2- || %91
w: pil- lars|of cre-|a- *|tion;|||Ah _|
[K:E][M:3/4] E6 | z6 | z6 | (A6 | B6 | A4) z2 |!mf! d6 |!<(! (B4 c2 | A2 G2!<)! B2 | %100
w: _|||Ah|_||The|swirl- *||
!f! c2) (d2 e2- | e2)!>(! A2 G2!>)! | F6 | z2!mf! (G2 B2 | A2) c2 e2- | e2 (f4 | d4 c2) | %107
w: * ing _|_ gal- ax-|ies;|And _|_ sis- ter|_ worlds|_ _|
 (c2 e2) (d2- | d2 c2 d2) | z2 e4- | e6- | e4 z2 | (A6 | B6 | A4) z2 |!mf!!<(! d6 | B4 c2 | %117
w: of _ Earth;|_ _ _|Ah,|_||Ah.|_||Cre-|a- tion|
 (A2 G2)!<)! B2 |!f! (c2 d2 e2- | e2) (A2 G2 | F6) |!>(! (d6!>)! || %122
w: and _ re-|birth; _ _|_ and _|_|re-|
[K:Db][M:4/4]"^(same pitch)" e6) z2 |!mp! G4 G2 A2 | B2 B2 G2 G2 | D4 z2 F2 | %126
w: birth:|Grant us hu-|mil- i- ty to|see our|
!<(! (B2 A2) A2 A2!<)! |!mf! F2 G2!>(! A2 B2 | d4!>)!!mp! e4 |!p! B4 z2!<(! B2 | %130
w: selves _ and our|ve- ry, ve- ry|ve- ry|small but|
 !tenuto!=G4!<)!!>)!!>(! F4 ||[K:Bb] F8 |] %132
w: pre- cious|home.|
V:5
 z2!f! B,,2 C,2 B,,2 | G,4 F,4 | B,6 z2 | z8 |!mf! z2 B,2 G,2 F,2 | (D4 C2) B,2 | (E,4 B,4 | %7
w: O, eye of|Man that|flies||a- bove the|stra- * to-|sphere, _|
 C2) z2 z4 | C,4 D,4 | (E,4 B,2 A,2 | F,4 G,2 F,2) | F,4 z4 | [C,A,]8- | [C,A,]4 z4 | z8 | z8 | %16
w: _|a- bove|bus- * *||y|air,|_|||
 z2!mp! (F,4 G,2) | [C,G,]2 E,2 F,2 E,2 | (C,4 B,,4- | B,,2) z2 z4 | z8 |!mf! z2 F,2 G,2 F,2 | %22
w: or _|shad- ed by the|Earth; _|_||O, eye of|
 G,4 A,4 | B,6 z2 | z8 | z4 F,4 | (A, B,2) F, G,2 F,2 | (C,2 E,2 F,2 G,2 | B,6) z2 | %29
w: Man that|flies||O.|eye _ of Man that|flies _ _ _|_|
 z2 C,2 F,2 G,2 | F,4 E,4 || F,6!mp! z2 | D,6 C,2 | (D,4 C,4) | F,6 D,2 | (D,4 =E,4 || %36
w: a- bove the|bus- y|air;|turn- ing|'round; _|turn- ing|'round, _|
[K:G] C,6) z2 | z4 z2 B,,2 | B,,2 B,,2 B,,2 A,,2 | A,,8- | A,,8 | z8 |!mf! z2 D,2 E,2 F,2 | %43
w: _|On|gy- ros ev- er|sure,|_||As light at|
 G,4 [D,A,]4 | [A,,A,]6 z2 | z2!mp! C,2 E,2 F,2 |!<(! C,4!<)! E,4 |!mf! D,6 z2 ||[M:3/4] z6 | z6 | %50
w: last ar-|rives|A- cross ten|bil- lion|years;|||
 z6 | z6 | z2!mf! (G,2 A,2 | E,6 | D,6) | z6 | z2 (G,4 | B,2 A,2 G,2 | E,2 D,4 | C,2 D,4) | z6 | %61
w: ||Ah _|_|||Ah|_ _ _||||
 z6 | z6 | z6 | z6 |!f! (D,2 E,2 F,2 | G,2 D,2 E,2) | (D,2 B,,2) C,2 | D,4 E,2- | E,2 (G,4 | %70
w: ||||O _ _|_ _ _|eye _ of|Man that|_ sees|
 A,2 B,2 C2 | D4) z2 |!mp! (F,4 E,2) | (D,4 E,2 | C,2 B,,2) (D,2 |!<(! E,2 F,2 G,2- | %76
w: _ _ _||the _|flow- *|* * ers|_ _ _|
 G,2)!<)!!mf! C2 B,2 | A,4 z2 | (G,2 A,2!<(! G,2) | (B,2 C2) D2 | (EC B,A,)!<)! F,2 | %81
w: * of the|sky|ex- * *|pan- * ding|as _ _ _ they|
!f! (G,2 C,2 D,2 | F,2 G,4- ||[M:4/4] G,2) z2 z2!mp! [B,,E,]2 |!<(! [B,,F,]4 [A,,E,]4 | %85
w: fly; _ _|_ _|* the|pil- lars|
 E,6!<)! ^D,2 |!f!!>(! [^C,^F,]8!>)! | [B,,^G,]8 | z8 | z8 | z2!mp! B,,4- !fermata!B,,2- || %91
w: of cre-|a-|tion;|||Ah _|
[K:E][M:3/4] B,,6- | B,,6- | B,,6 | z6 | z6 |!mp! (E,6 | F,6) |!<(! (B,,6 | E,4!<)! G,2 |!mf! A,6 | %101
w: _|||||Ah,|_|Ah|_ _||
 B,2) z2 z2 | z6 |!mf! (B,,2 C,2 D,2) | E,2 C4 | (B,4 A,2 | F,4) E,2- | E,2 (F,4 | G,6) | %109
w: ||And _ _|sis- ter|worlds _|_ of|_ Earth;|_|
 z2 B,,4- | B,,6- | B,,6 | z6 |!mf!!<(! F,6 | E,6 | F,6 | B,,6 | E,4!<)! G,2 |!f! (A,6 | %119
w: Ah|_|||Cre-|a-|tion|and|re- *|birth;|
 B,2) (E,2 C,2 | B,,6) |!>(! (G,6!>)! ||[K:Db][M:4/4]"^(same pitch)" A,6) z2 |!mp! D,4 E,2 E,2 | %124
w: _ and _|_|re-|birth:|Grant us hu-|
 D,2 D,2 D,2 !tenuto!B,,2 | A,,4 z2 B,,2 |!<(! E,4 D,2 C,2!<)! |!mf! B,,2 C,2!>(! D,2 F,2 | %128
w: mil- i- ty to|see our|selves and our|ve- ry, ve- ry,|
 G,4!>)!!mp! G,4 |!p! E,4 z2!<(! =D,2 | !tenuto![F,,C,]4!<)!!>)!!>(! [F,,C,]4 ||[K:Bb] B,,8 |] %132
w: ve- ry|small but|pre- cious|home.|

